img/viber.svg

<svg width="38" height="38" viewBox="0 0 38 38" fill="none" xmlns="http://www.w3.org/2000/svg">
<path d="M18.0502 0C14.9991 0.0443333 8.44407 0.544667 4.78182 3.90608C2.06166 6.62942 1.10216 10.6083 1.00241 15.5436C0.902656 20.4773 0.772822 29.7287 9.69016 32.2367H9.69491L9.68857 36.062C9.68857 36.062 9.62999 37.6089 10.6544 37.9256C11.8847 38.3088 12.6082 37.1339 13.7894 35.8641C14.4338 35.1674 15.3284 34.1478 16.0013 33.3624C22.0972 33.8786 26.787 32.7038 27.3222 32.5312C28.5508 32.1322 35.5175 31.2392 36.6512 21.9909C37.8228 12.4593 36.0812 6.42675 32.9462 3.70975C32.0025 2.83892 28.1867 0.0680833 19.6857 0.0316667C19.6857 0.0316667 19.0603 -0.00791667 18.0438 0.00475L18.0502 0ZM18.142 2.68058C19.0049 2.67425 19.5353 2.7075 19.5353 2.7075C26.7268 2.73917 30.1706 4.90517 30.9702 5.63033C33.6222 7.90242 34.976 13.338 33.988 21.3006V21.3038C33.0317 29.0273 27.3792 29.5118 26.3373 29.8458C25.894 29.9883 21.7742 31.0128 16.5951 30.6755C16.5951 30.6755 12.7381 35.3305 11.5332 36.5402C11.3432 36.7302 11.1215 36.8046 10.9758 36.7682C10.77 36.7159 10.713 36.4705 10.7146 36.1127L10.7462 29.7508C3.20641 27.6608 3.64499 19.7885 3.73207 15.6671C3.81757 11.5441 4.59182 8.16525 6.89241 5.89317C9.99574 3.08592 15.5596 2.698 18.1499 2.679L18.142 2.68058ZM18.7437 6.80042C18.6209 6.80661 18.5052 6.85953 18.4202 6.94832C18.3352 7.03712 18.2874 7.15506 18.2866 7.27797C18.2858 7.40088 18.332 7.51944 18.4158 7.60935C18.4996 7.69925 18.6147 7.75369 18.7373 7.7615C21.3087 7.77733 23.4018 8.61175 25.115 10.2822C26.8139 11.9383 27.68 14.1898 27.7006 17.1443C27.7037 17.4088 27.9222 17.6193 28.1867 17.6193C28.3132 17.6177 28.434 17.5662 28.5229 17.4761C28.6118 17.386 28.6617 17.2646 28.6617 17.138C28.6395 13.9967 27.6832 11.4443 25.7863 9.595C23.9022 7.75833 21.524 6.81942 18.7452 6.80042H18.7437ZM12.4737 7.90083C12.137 7.85422 11.7944 7.9193 11.4983 8.08608L11.4825 8.08925C10.8017 8.48033 10.1905 8.97908 9.66799 9.56492C9.66482 9.57125 9.65849 9.57125 9.65532 9.57758C9.23257 10.089 8.99032 10.5878 8.92699 11.0786C8.91459 11.1518 8.91087 11.2262 8.91591 11.3003C8.91591 11.5156 8.95074 11.7278 9.01882 11.9336L9.03941 11.9494C9.25316 12.7094 9.78832 13.9698 10.9473 16.0724C11.6123 17.2884 12.3771 18.4474 13.2368 19.5336C13.6643 20.0783 14.1235 20.5992 14.6143 21.0916L14.8233 21.3006C15.3142 21.7882 15.8367 22.2506 16.3813 22.6781C17.4684 23.538 18.6262 24.3044 19.8425 24.9692C21.9452 26.1298 23.2087 26.6633 23.9655 26.8787L23.9813 26.9008C24.2568 26.9909 24.5484 27.0206 24.8363 26.9879C25.3272 26.9309 25.8291 26.6871 26.3373 26.2596C26.3437 26.2596 26.3421 26.2564 26.35 26.2517C26.9358 25.7292 27.4314 25.1117 27.8225 24.434L27.8272 24.4182C28.1835 23.7342 28.0647 23.085 27.5422 22.6448C27.5359 22.6448 26.4371 21.7265 25.9003 21.3307C25.3303 20.9269 24.7445 20.5517 24.1381 20.2065C23.3306 19.7553 22.5041 20.0387 22.1621 20.482L21.4543 21.375C21.0902 21.8231 20.4141 21.7645 20.4141 21.7645C15.4741 20.5042 14.152 15.5024 14.152 15.5024C14.152 15.5024 14.0934 14.8279 14.5447 14.4638L15.4361 13.7544C15.8747 13.414 16.1581 12.5875 15.7052 11.7784C15.3613 11.1709 14.9861 10.5816 14.5811 10.013C14.1559 9.45657 13.7177 8.91017 13.2669 8.37425C13.0684 8.12561 12.7856 7.95832 12.4721 7.904L12.4737 7.90083ZM19.5828 9.29417C19.4556 9.29039 19.3321 9.33731 19.2394 9.42461C19.1468 9.5119 19.0926 9.63243 19.0888 9.75967C19.085 9.8869 19.132 10.0104 19.2193 10.1031C19.3066 10.1957 19.4271 10.2499 19.5543 10.2537C21.391 10.3883 22.7479 10.9915 23.7422 12.0745C24.7397 13.1638 25.2147 14.4875 25.1767 16.1437C25.1837 16.2654 25.2362 16.3801 25.324 16.4648C25.4117 16.5495 25.5282 16.598 25.6501 16.6006C25.7721 16.6032 25.8905 16.5597 25.9818 16.4788C26.0731 16.3979 26.1305 16.2856 26.1426 16.1642C26.1822 14.3038 25.6137 12.692 24.4532 11.4238C23.2815 10.1413 21.6396 9.43983 19.624 9.29258H19.586L19.5828 9.29417ZM20.3159 11.875C20.194 11.8768 20.0773 11.9246 19.9892 12.0089C19.901 12.0932 19.8481 12.2077 19.8409 12.3294C19.8282 12.5938 20.0309 12.8203 20.2969 12.8361C21.125 12.8804 21.6823 13.1132 22.0592 13.5043C22.4392 13.8922 22.6735 14.4859 22.7178 15.3472C22.7341 15.4666 22.7946 15.5755 22.8873 15.6525C22.98 15.7294 23.0982 15.7688 23.2186 15.7629C23.3389 15.7569 23.4526 15.706 23.5373 15.6203C23.6219 15.5345 23.6713 15.4202 23.6757 15.2998C23.6282 14.2801 23.3353 13.4346 22.7574 12.8345C22.1763 12.236 21.3435 11.9257 20.3507 11.8734H20.3222L20.3159 11.875Z" fill="white"/>
</svg>

<svg xmlns="http://www.w3.org/2000/svg" fill="none" viewBox="0 0 38 38"><path fill="#fff" d="M18.05 0C15 .044 8.444.545 4.782 3.906c-2.72 2.723-3.68 6.702-3.78 11.638-.1 4.933-.23 14.185 8.688 16.693h.005l-.006 3.825s-.059 1.547.965 1.864c1.23.383 1.954-.792 3.135-2.062a99.35 99.35 0 0 0 2.212-2.502c6.096.517 10.786-.658 11.321-.83 1.229-.4 8.195-1.293 9.33-10.541 1.17-9.532-.57-15.564-3.706-18.281-.944-.871-4.76-3.642-13.26-3.678 0 0-.626-.04-1.642-.027L18.05 0zm.092 2.68c.863-.006 1.393.027 1.393.027 7.192.032 10.636 2.198 11.435 2.923 2.652 2.272 4.006 7.708 3.018 15.67v.004c-.956 7.723-6.609 8.208-7.65 8.542-.444.142-4.564 1.167-9.743.83 0 0-3.857 4.655-5.062 5.864-.19.19-.412.265-.557.228-.206-.052-.263-.297-.261-.655l.031-6.362c-7.54-2.09-7.101-9.963-7.014-14.084.086-4.123.86-7.502 3.16-9.774C9.996 3.086 15.56 2.698 18.15 2.68l-.008.002zm.602 4.12a.481.481 0 0 0-.007.962c2.572.015 4.665.85 6.378 2.52 1.699 1.656 2.565 3.908 2.586 6.862a.48.48 0 1 0 .961-.006c-.023-3.141-.979-5.694-2.876-7.543-1.884-1.837-4.262-2.776-7.04-2.795h-.002zm-6.27 1.1a1.553 1.553 0 0 0-.976.186l-.015.003c-.681.391-1.293.89-1.815 1.476-.003.006-.01.006-.013.013-.422.511-.665 1.01-.728 1.5a.944.944 0 0 0-.011.222c0 .216.035.428.103.634l.02.015c.214.76.75 2.02 1.908 4.123a24.576 24.576 0 0 0 2.29 3.462c.427.544.886 1.065 1.377 1.558l.21.209c.49.487 1.013.95 1.557 1.377a24.587 24.587 0 0 0 3.462 2.291c2.102 1.16 3.366 1.694 4.122 1.91l.016.022c.276.09.567.12.855.087.491-.057.993-.3 1.501-.728.007 0 .005-.004.013-.008a7.373 7.373 0 0 0 1.473-1.818l.004-.016c.356-.684.238-1.333-.285-1.773-.006 0-1.105-.918-1.642-1.314a21.126 21.126 0 0 0-1.762-1.125c-.807-.45-1.634-.167-1.976.276l-.708.893c-.364.448-1.04.39-1.04.39-4.94-1.26-6.262-6.263-6.262-6.263s-.059-.674.393-1.038l.891-.71c.439-.34.722-1.166.27-1.976a20.171 20.171 0 0 0-1.125-1.765 44.846 44.846 0 0 0-1.314-1.639 1.301 1.301 0 0 0-.795-.47l.002-.003zm7.109 1.394a.48.48 0 0 0-.029.96c1.837.134 3.194.738 4.188 1.82.998 1.09 1.473 2.414 1.435 4.07a.485.485 0 0 0 .966.02c.04-1.86-.53-3.472-1.69-4.74-1.171-1.283-2.813-1.984-4.829-2.131h-.038l-.003.001zm.733 2.581a.483.483 0 0 0-.475.454c-.013.265.19.491.456.507.828.044 1.385.277 1.762.668.38.388.614.982.659 1.843a.482.482 0 0 0 .958-.047c-.048-1.02-.34-1.865-.919-2.466-.58-.598-1.414-.908-2.406-.96h-.029l-.006.001z"/></svg>
